X:370
T:MaCleod's Tables
C:Joe Buchanan's Scottish Tome - Page 218.1
I:218 1
Z:Carl Allison
C:Iain MacDonald
R:March
L:1/16
M:4/4
K:A
AB | "A"cBAF "A"ECB,A, | "A"CEEF "F#m"A2AB | "A"cBAF "A"ECB,A, | "E"B,2B2 "E7"B2AB | 
"A"cBAF "A"ECB,A, | "A"CEEF "F#m"A2AB | "A"{cd}cdec "S7"{cd}BcdB| "A"c2A2 A2 :| 
GA | "E"BGEG B2AB | "A"cAEA c4 | "B"^defe dBcd | "E"e2E2 E2AB | 
"A"cBAF ECB,A, | "A"CEEF "F#m"A2AB | "A"{cd}BccB {Bc}BcdB | "A"c2A2 A2 :| 

